icons/communication/message-dots-alt-24.svg

<svg width="24" height="24" viewBox="0 0 24 24" fill="none" xmlns="http://www.w3.org/2000/svg">
<path d="M12.5 18.0426C13.3284 18.0426 14 17.371 14 16.5426C14 15.7141 13.3284 15.0426 12.5 15.0426C11.6716 15.0426 11 15.7141 11 16.5426C11 17.371 11.6716 18.0426 12.5 18.0426Z" fill="black"/>
<path d="M17 18.0426C17.8284 18.0426 18.5 17.371 18.5 16.5426C18.5 15.7141 17.8284 15.0426 17 15.0426C16.1716 15.0426 15.5 15.7141 15.5 16.5426C15.5 17.371 16.1716 18.0426 17 18.0426Z" fill="black"/>
<path d="M23 16.5426C23 17.371 22.3284 18.0426 21.5 18.0426C20.6716 18.0426 20 17.371 20 16.5426C20 15.7141 20.6716 15.0426 21.5 15.0426C22.3284 15.0426 23 15.7141 23 16.5426Z" fill="black"/>
<path d="M12.5 3.5C8.08173 3.5 4.50001 7.08172 4.50001 11.5C4.50001 12.7385 4.78091 13.9092 5.28177 14.9539C5.39825 15.1969 5.37227 15.4713 5.23708 15.6828L3.80161 19.0948L8.34898 18.5132C8.48487 18.4958 8.61691 18.516 8.73469 18.5656C8.75906 18.5752 8.78317 18.5862 8.80691 18.5986C9.1186 18.7611 9.44235 18.9037 9.77652 19.0247C10.1745 19.1687 10.4178 19.5893 10.2991 19.9955C10.1855 20.3839 9.78254 20.6145 9.40009 20.4825C9.02686 20.3537 8.6641 20.2023 8.3135 20.03L3.13105 20.6928C2.36666 20.7906 1.7836 20.0234 2.08244 19.3131L3.78057 15.2767C3.27821 14.1184 3.00001 12.8408 3.00001 11.5C3.00001 6.25329 7.2533 2 12.5 2C17.4943 2 21.5885 5.85392 21.9708 10.7501C22.0031 11.163 21.6642 11.5 21.25 11.5C20.8358 11.5 20.5037 11.1631 20.4654 10.7507C20.0876 6.68377 16.6656 3.5 12.5 3.5Z" fill="black"/>
</svg>

<svg xmlns="http://www.w3.org/2000/svg" width="24" height="24"><path d="M12.5 18.043a1.5 1.5 0 100-3 1.5 1.5 0 000 3zm4.5 0a1.5 1.5 0 100-3 1.5 1.5 0 000 3zm6-1.5a1.5 1.5 0 11-3 0 1.5 1.5 0 013 0z"/><path d="M12.5 3.5a8 8 0 00-7.218 11.454.75.75 0 01-.045.729l-1.435 3.412 4.547-.582a.746.746 0 01.458.086c.312.162.635.305.97.426.398.144.64.564.522.97-.114.389-.516.62-.899.488a9.461 9.461 0 01-1.087-.453l-5.182.663a1 1 0 01-1.049-1.38l1.699-4.036A9.5 9.5 0 0112.5 2c4.993 0 9.087 3.854 9.47 8.75.032.413-.307.75-.721.75s-.746-.337-.785-.75A8 8 0 0012.5 3.5z"/></svg>
